ui/StatusQ/src/assets/img/icons/speech.svg

<svg fill="none" height="24" viewBox="0 0 24 24" width="24" xmlns="http://www.w3.org/2000/svg"><g fill="#000"><path d="m10.7977 17.9103c.2553.0385.4523.2525.4523.5107v2.579c0 .4142.3358.75.75.75s.75-.3358.75-.75v-2.5791c0-.2582.197-.4722.4523-.5107 1.469-.2214 2.8071-.8423 3.9001-1.7485.3189-.2643.3168-.7423.0239-1.0352s-.7654-.2889-1.0899-.0315c-1.1087.8796-2.5113 1.405-4.0366 1.405s-2.92785-.5254-4.03663-1.405c-.3245-.2574-.79699-.2614-1.08989.0315-.29289.2929-.29494.7709.02394 1.0352 1.09312.9063 2.43135 1.5272 3.90048 1.7486z"/><path clip-rule="evenodd" d="m12 2c-2.20914 0-4 1.79086-4 4v4c0 2.2091 1.79086 4 4 4 2.2091 0 4-1.7909 4-4v-4c0-2.20914-1.7909-4-4-4zm2.5 8v-4c0-1.38071-1.1193-2.5-2.5-2.5s-2.5 1.11929-2.5 2.5v4c0 1.3807 1.1193 2.5 2.5 2.5s2.5-1.1193 2.5-2.5z" fill-rule="evenodd"/></g></svg>

<svg width="24" height="24" viewBox="0 0 24 24" fill="none" xmlns="http://www.w3.org/2000/svg">
<path d="M10.7977 17.9103C11.053 17.9488 11.25 18.1628 11.25 18.421V21C11.25 21.4142 11.5858 21.75 12 21.75C12.4142 21.75 12.75 21.4142 12.75 21V18.4209C12.75 18.1627 12.947 17.9487 13.2023 17.9102C14.6713 17.6888 16.0094 17.0679 17.1024 16.1617C17.4213 15.8974 17.4192 15.4194 17.1263 15.1265C16.8334 14.8336 16.3609 14.8376 16.0364 15.095C14.9277 15.9746 13.5251 16.5 11.9998 16.5C10.4745 16.5 9.07195 15.9746 7.96317 15.095C7.63867 14.8376 7.16618 14.8336 6.87328 15.1265C6.58039 15.4194 6.57834 15.8974 6.89722 16.1617C7.99034 17.068 9.32857 17.6889 10.7977 17.9103Z" fill="black"/>
<path fill-rule="evenodd" clip-rule="evenodd" d="M12 2C9.79086 2 8 3.79086 8 6V10C8 12.2091 9.79086 14 12 14C14.2091 14 16 12.2091 16 10V6C16 3.79086 14.2091 2 12 2ZM14.5 10V6C14.5 4.61929 13.3807 3.5 12 3.5C10.6193 3.5 9.5 4.61929 9.5 6V10C9.5 11.3807 10.6193 12.5 12 12.5C13.3807 12.5 14.5 11.3807 14.5 10Z" fill="black"/>
</svg>
